src/icons/less.svg

<svg width="16" height="16" viewBox="0 0 16 16" fill="none" xmlns="http://www.w3.org/2000/svg">
<path fill-rule="evenodd" clip-rule="evenodd" d="M6.06793 6.767C5.28893 6.767 4.54193 7.411 4.56293 8.424C4.56293 9.469 5.25693 10.082 6.17493 10.082C6.55893 10.082 6.98593 9.944 7.31693 9.722L6.99693 9.163C6.76193 9.3 6.53693 9.363 6.30293 9.363C5.87593 9.363 5.54493 9.163 5.45993 8.678H7.39193C7.40193 8.604 7.42393 8.456 7.42393 8.287C7.43393 7.432 6.96393 6.767 6.06793 6.767ZM9.07793 8.098L9.21693 8.15C9.63293 8.287 10.0919 8.53 10.0919 9.11C10.0919 9.691 9.63293 10.134 8.77893 10.134C8.37393 10.134 7.88293 9.954 7.56193 9.691L7.97893 9.079C8.26693 9.3 8.53393 9.406 8.79993 9.406C9.08893 9.406 9.21693 9.3 9.21693 9.142C9.21693 8.946 8.93993 8.841 8.63493 8.725L8.56493 8.699C8.18093 8.551 7.72293 8.287 7.72293 7.769C7.72293 7.189 8.21293 6.777 8.93893 6.777C9.42993 6.777 9.79293 6.989 10.0589 7.189L9.63293 7.749C9.39793 7.579 9.18493 7.485 8.94993 7.485C8.71493 7.485 8.58693 7.58 8.58693 7.738C8.58693 7.919 8.80693 7.999 9.07693 8.098M11.6549 8.095C11.7016 8.11167 11.7496 8.13 11.7989 8.15C12.2149 8.287 12.6739 8.53 12.6739 9.11C12.6739 9.691 12.2139 10.134 11.3609 10.134C10.9559 10.134 10.4649 9.954 10.1439 9.691L10.5709 9.079C10.8589 9.3 11.1259 9.406 11.3929 9.406C11.6809 9.406 11.8089 9.3 11.8089 9.142C11.8089 8.946 11.5319 8.841 11.2269 8.725L11.1579 8.699C10.7739 8.551 10.3149 8.287 10.3149 7.769C10.3149 7.189 10.8059 6.777 11.5319 6.777C12.0219 6.777 12.3859 6.989 12.6519 7.189L12.2259 7.749C11.9909 7.579 11.7769 7.485 11.5419 7.485C11.3079 7.485 11.1799 7.58 11.1799 7.738C11.1799 7.917 11.3939 7.998 11.6549 8.095ZM6.07793 7.475C5.77893 7.475 5.52293 7.675 5.45793 8.097H6.61093C6.61093 7.738 6.46193 7.475 6.07793 7.475Z" fill="#69A7D3"/>
<path fill-rule="evenodd" clip-rule="evenodd" d="M3.39 5.5H2.823C2.247 5.5 1.991 5.722 1.991 6.408C1.991 6.862 2.055 7.115 2.055 7.506C2.055 7.727 1.916 7.96 1.5 7.981V8.53C1.916 8.54 2.055 8.773 2.055 8.994C2.055 9.384 1.991 9.617 1.991 10.071C1.991 10.757 2.247 10.979 2.813 10.979H3.229V10.493H3.101C2.834 10.493 2.749 10.388 2.749 10.039C2.749 9.691 2.781 9.395 2.781 9.005C2.781 8.519 2.621 8.329 2.301 8.255V8.224C2.621 8.15 2.781 7.96 2.781 7.474C2.781 7.094 2.749 6.788 2.749 6.44C2.749 6.091 2.823 5.996 3.101 5.996H3.391L3.39 5.5ZM13.945 7.506C13.945 7.094 14.009 6.851 14.009 6.408C14.009 5.722 13.753 5.5 13.187 5.5H12.771V5.986H12.899C13.187 5.986 13.251 6.081 13.251 6.429C13.251 6.756 13.219 7.083 13.219 7.464C13.219 7.949 13.379 8.139 13.699 8.214V8.244C13.379 8.319 13.219 8.509 13.219 8.994C13.219 9.374 13.251 9.68 13.251 10.029C13.251 10.388 13.177 10.483 12.899 10.483V10.493H12.771V11H13.187C13.753 11 14.009 10.778 14.009 10.092C14.009 9.638 13.945 9.406 13.945 8.994C13.945 8.773 14.084 8.54 14.5 8.519V7.97C14.084 7.96 13.945 7.727 13.945 7.506Z" fill="#89DDFF"/>
<path fill-rule="evenodd" clip-rule="evenodd" d="M4.33989 9.079V5.5H3.38989V9.026C3.38989 9.67 3.61289 10.092 4.26389 10.092C4.46689 10.092 4.62689 10.06 4.74389 10.018L4.63789 9.332C4.57389 9.342 4.33989 9.279 4.33989 9.079Z" fill="#69A7D3"/>
</svg>

<svg xmlns="http://www.w3.org/2000/svg" width="16" height="16" fill="none"><g fill-rule="evenodd" clip-rule="evenodd"><path fill="#69A7D3" d="M6.068 6.767c-.779 0-1.526.644-1.505 1.657 0 1.045.694 1.658 1.612 1.658.384 0 .811-.138 1.142-.36l-.32-.559c-.235.137-.46.2-.694.2-.427 0-.758-.2-.843-.685h1.932c.01-.074.032-.222.032-.391.01-.855-.46-1.52-1.356-1.52m3.01 1.331.139.052c.416.137.875.38.875.96 0 .581-.459 1.024-1.313 1.024-.405 0-.896-.18-1.217-.443l.417-.612c.288.221.555.327.821.327.289 0 .417-.106.417-.264 0-.196-.277-.301-.582-.417l-.07-.026c-.384-.148-.842-.412-.842-.93 0-.58.49-.992 1.216-.992.491 0 .854.212 1.12.412l-.426.56c-.235-.17-.448-.264-.683-.264s-.363.095-.363.253c0 .181.22.261.49.36m2.578-.003q.07.025.144.055c.416.137.875.38.875.96 0 .581-.46 1.024-1.313 1.024-.405 0-.896-.18-1.217-.443l.427-.612c.288.221.555.327.822.327.288 0 .416-.106.416-.264 0-.196-.277-.301-.582-.417l-.069-.026c-.384-.148-.843-.412-.843-.93 0-.58.491-.992 1.217-.992.49 0 .854.212 1.12.412l-.426.56c-.235-.17-.449-.264-.684-.264-.234 0-.362.095-.362.253 0 .179.214.26.475.357m-5.577-.62c-.299 0-.555.2-.62.622h1.153c0-.359-.149-.623-.533-.623"/><path fill="#89DDFF" d="M3.39 5.5h-.567c-.576 0-.832.222-.832.908 0 .454.064.707.064 1.098 0 .221-.139.454-.555.475v.549c.416.01.555.243.555.464 0 .39-.064.623-.064 1.077 0 .686.256.908.822.908h.416v-.486h-.128c-.267 0-.352-.105-.352-.454 0-.348.032-.644.032-1.034 0-.486-.16-.676-.48-.75v-.031c.32-.074.48-.264.48-.75 0-.38-.032-.686-.032-1.034 0-.349.074-.444.352-.444h.29zM13.945 7.506c0-.412.064-.655.064-1.098 0-.686-.256-.908-.822-.908h-.416v.486h.128c.288 0 .352.095.352.443 0 .327-.032.654-.032 1.035 0 .485.16.675.48.75v.03c-.32.075-.48.265-.48.75 0 .38.032.686.032 1.035 0 .359-.074.454-.352.454v.01h-.128V11h.416c.566 0 .822-.222.822-.908 0-.454-.064-.686-.064-1.098 0-.221.139-.454.555-.475V7.97c-.416-.01-.555-.243-.555-.464"/><path fill="#69A7D3" d="M4.34 9.079V5.5h-.95v3.526c0 .644.223 1.066.874 1.066.203 0 .363-.032.48-.074l-.106-.686c-.064.01-.299-.053-.299-.253"/></g></svg>
